packages/icons/svg/Inline/Folder.svg

<svg width="12" height="12" viewBox="0 0 12 12" fill="none" xmlns="http://www.w3.org/2000/svg">
<path fill-rule="evenodd" clip-rule="evenodd" d="M0 2C0 0.895431 0.895431 0 2 0H4.34246C4.91919 0 5.46784 0.248961 5.84762 0.682991L6.125 1H10C11.1046 1 12 1.89543 12 3V9C12 10.1046 11.1046 11 10 11H2C0.895431 11 0 10.1046 0 9V2ZM1 4V3H11V4H1Z" fill="#858585"/>
</svg>

<svg width="12" height="12" fill="none" xmlns="http://www.w3.org/2000/svg" viewBox="0 0 12 12"><path fill-rule="evenodd" clip-rule="evenodd" d="M0 2a2 2 0 012-2h2.342a2 2 0 011.506.683L6.125 1H10a2 2 0 012 2v6a2 2 0 01-2 2H2a2 2 0 01-2-2V2zm1 2V3h10v1H1z" fill="currentColor"></path></svg>
